X:11
T:Parjanyah Vasundharayah Ucchalat Snehasya Swaroopam Asti
M:2/4
L:1/8
Q:1/4=158
K:Ebm
|: _E, B, _E _G | _B _e _g _b | _D_A, _D _F | _A _d _f _a :|
K:Gb
| _G _B _d _g | _b _d' _g' _b' | _d _f _a _d' | _f' _a' _d'' _f'' |
